X: 1
T:Plug In Baby
C:Muse
V:1
V:2
M:3/4
L:1/4
Q:140
K:D

V:1


(3d^fa d |[1 d3 |[2 a a a :|

z3 ||
(2ce | (2eg | (4cdef | (4gfed || 
c/ c/ e e | f/ f/ a a :|


V:2


[D3^F3A3] |[1 [D3^F3A3] |[2 [G,3G,3G,3] :|

z3 ||
[C3E3G3] | [F3A3c3] :|
[C3E3G3] | [F3A3c3] :|

